static/img/kroki/2a95ee794204f938e1b2a94e7756d5a5.svg

<?xml version="1.0" encoding="us-ascii" standalone="no"?><svg xmlns="http://www.w3.org/2000/svg" xmlns:xlink="http://www.w3.org/1999/xlink" contentStyleType="text/css" height="252px" preserveAspectRatio="none" style="width:277px;height:252px;" version="1.1" viewBox="0 0 277 252" width="277px" zoomAndPan="magnify"><defs/><g><!--class aws_rds_instance--><g id="elem_aws_rds_instance"><rect codeLine="23" fill="#3D176E" height="39.7891" id="aws_rds_instance" rx="2.5" ry="2.5" style="stroke:#000D19;stroke-width:0.5;" width="188" x="7" y="106.79"/><ellipse cx="22" cy="126.6845" fill="#ADD1B2" rx="11" ry="11" style="stroke:#181818;stroke-width:1.0;"/><path d="M24.9688,132.3252 Q24.3906,132.622 23.75,132.7627 Q23.1094,132.9189 22.4063,132.9189 Q19.9063,132.9189 18.5781,131.2783 Q17.2656,129.622 17.2656,126.497 Q17.2656,123.372 18.5781,121.7158 Q19.9063,120.0595 22.4063,120.0595 Q23.1094,120.0595 23.75,120.2158 Q24.4063,120.372 24.9688,120.6689 L24.9688,123.3877 Q24.3438,122.8095 23.75,122.5439 Q23.1563,122.2627 22.5313,122.2627 Q21.1875,122.2627 20.5,123.3408 Q19.8125,124.4033 19.8125,126.497 Q19.8125,128.5908 20.5,129.6689 Q21.1875,130.7314 22.5313,130.7314 Q23.1563,130.7314 23.75,130.4658 Q24.3438,130.1845 24.9688,129.6064 L24.9688,132.3252 Z " fill="#000000"/><text fill="#D9B8FF" font-family="Helvetica" font-size="17" lengthAdjust="spacing" textLength="146" x="41" y="132.5698">aws_rds_instance</text></g><!--class aws_rds_snapshot--><g id="elem_aws_rds_snapshot"><rect codeLine="26" fill="#3D176E" height="39.7891" id="aws_rds_snapshot" rx="2.5" ry="2.5" style="stroke:#000D19;stroke-width:0.5;" width="193" x="77.5" y="206.58"/><ellipse cx="92.5" cy="226.4745" fill="#ADD1B2" rx="11" ry="11" style="stroke:#181818;stroke-width:1.0;"/><path d="M95.4688,232.1152 Q94.8906,232.412 94.25,232.5527 Q93.6094,232.7089 92.9063,232.7089 Q90.4063,232.7089 89.0781,231.0683 Q87.7656,229.412 87.7656,226.287 Q87.7656,223.162 89.0781,221.5058 Q90.4063,219.8495 92.9063,219.8495 Q93.6094,219.8495 94.25,220.0058 Q94.9063,220.162 95.4688,220.4589 L95.4688,223.1777 Q94.8438,222.5995 94.25,222.3339 Q93.6563,222.0527 93.0313,222.0527 Q91.6875,222.0527 91,223.1308 Q90.3125,224.1933 90.3125,226.287 Q90.3125,228.3808 91,229.4589 Q91.6875,230.5214 93.0313,230.5214 Q93.6563,230.5214 94.25,230.2558 Q94.8438,229.9745 95.4688,229.3964 L95.4688,232.1152 Z " fill="#000000"/><text fill="#D9B8FF" font-family="Helvetica" font-size="17" lengthAdjust="spacing" textLength="151" x="111.5" y="232.3598">aws_rds_snapshot</text></g><!--class aws_vpc--><g id="elem_aws_vpc"><rect codeLine="29" fill="#3D176E" height="39.7891" id="aws_vpc" rx="2.5" ry="2.5" style="stroke:#000D19;stroke-width:0.5;" width="112" x="118" y="7"/><ellipse cx="133" cy="26.8945" fill="#ADD1B2" rx="11" ry="11" style="stroke:#181818;stroke-width:1.0;"/><path d="M135.9688,32.5352 Q135.3906,32.832 134.75,32.9727 Q134.1094,33.1289 133.4063,33.1289 Q130.9063,33.1289 129.5781,31.4883 Q128.2656,29.832 128.2656,26.707 Q128.2656,23.582 129.5781,21.9258 Q130.9063,20.2695 133.4063,20.2695 Q134.1094,20.2695 134.75,20.4258 Q135.4063,20.582 135.9688,20.8789 L135.9688,23.5977 Q135.3438,23.0195 134.75,22.7539 Q134.1563,22.4727 133.5313,22.4727 Q132.1875,22.4727 131.5,23.5508 Q130.8125,24.6133 130.8125,26.707 Q130.8125,28.8008 131.5,29.8789 Q132.1875,30.9414 133.5313,30.9414 Q134.1563,30.9414 134.75,30.6758 Q135.3438,30.3945 135.9688,29.8164 L135.9688,32.5352 Z " fill="#000000"/><text fill="#D9B8FF" font-family="Helvetica" font-size="17" lengthAdjust="spacing" textLength="70" x="152" y="32.7798">aws_vpc</text></g><!--link aws_rds_instance to aws_rds_snapshot--><g id="link_aws_rds_instance_aws_rds_snapshot"><path codeLine="32" d="M115.42,147.01 C128.22,164.15 143.2317,184.2513 156.0217,201.3913 " fill="none" id="aws_rds_instance-to-aws_rds_snapshot" style="stroke:#1A83AF;stroke-width:2.0;"/><polygon fill="#1A83AF" points="159.61,206.2,157.4333,196.5947,156.6197,202.1927,151.0217,201.3791,159.61,206.2" style="stroke:#1A83AF;stroke-width:2.0;"/></g><!--link aws_vpc to aws_rds_instance--><g id="link_aws_vpc_aws_rds_instance"><path codeLine="33" d="M159.58,47.22 C146.78,64.36 131.7683,84.4613 118.9783,101.6013 " fill="none" id="aws_vpc-to-aws_rds_instance" style="stroke:#1A83AF;stroke-width:2.0;"/><polygon fill="#1A83AF" points="115.39,106.41,123.9783,101.5891,118.3803,102.4027,117.5667,96.8047,115.39,106.41" style="stroke:#1A83AF;stroke-width:2.0;"/></g><!--link aws_vpc to aws_rds_snapshot--><g id="link_aws_vpc_aws_rds_snapshot"><path codeLine="34" d="M186.28,47.09 C195.4,62.53 207.06,85.15 212,106.79 C215.94,124.03 215.94,129.34 212,146.58 C207.06,168.22 198.4515,185.6739 189.3315,201.1139 " fill="none" id="aws_vpc-to-aws_rds_snapshot" style="stroke:#1A83AF;stroke-width:2.0;"/><polygon fill="#1A83AF" points="186.28,206.28,194.3013,200.5652,188.8229,201.9749,187.4131,196.4965,186.28,206.28" style="stroke:#1A83AF;stroke-width:2.0;"/></g><!--SRC=[XP1FJy904CNl_HIRS2Pf9GfSJ2e9qGinuiqOCktEqWtjRZEpGD3utHMnPDtbptNURzwyDvMMAB1ftKuqs1H8dF1AcnO86f4JsUt4rfP4JobGWs4eJgrnLu4PD2WUiTwWqoM4n6kbovL1Pd7ZIGzGhfParqOUx1s1uHy9ZVEeIGtCkNEaYxL3BumS5oEbGZ8qxGraDhp32BCaaVwGD4rbDWwHgwSkzZuIS_s18lEVDhCEevZHYL_gOiezuOMCYdRwsOpF8AKsIt7hpLuEcSWW_PlFAv1skwSLrEoVOOU4rkrQd4IjS3oIQdWIVZe79-N-TGAsl2392stOWIbHV2R9Lw2nWPOhwq9jqvQ7KMJIV-jb-MYGJz_xzv5DqksUf3gFozJHwni0]--></g></svg>

<svg xmlns="http://www.w3.org/2000/svg" width="277" height="252" viewBox="0 0 277 252"><rect width="188" height="39.789" x="7" y="106.79" fill="#3D176E" rx="2.5" ry="2.5" style="stroke:#000d19;stroke-width:.5"/><circle cx="22" cy="126.684" r="11" fill="#ADD1B2" style="stroke:#181818;stroke-width:1"/><path d="M24.969 132.325q-.578.297-1.219.438-.64.156-1.344.156-2.5 0-3.828-1.64-1.312-1.657-1.312-4.782t1.312-4.781q1.328-1.656 3.828-1.656.703 0 1.344.156.656.156 1.219.453v2.719q-.625-.579-1.219-.844-.594-.281-1.219-.281-1.343 0-2.031 1.078-.687 1.062-.687 3.156t.687 3.172q.688 1.062 2.031 1.062.625 0 1.219-.265.594-.281 1.219-.86z"/><text x="41" y="132.57" fill="#D9B8FF" font-family="Helvetica" font-size="17" textLength="146">aws_rds_instance</text><rect width="193" height="39.789" x="77.5" y="206.58" fill="#3D176E" rx="2.5" ry="2.5" style="stroke:#000d19;stroke-width:.5"/><circle cx="92.5" cy="226.475" r="11" fill="#ADD1B2" style="stroke:#181818;stroke-width:1"/><path d="M95.469 232.115q-.578.297-1.219.438-.64.156-1.344.156-2.5 0-3.828-1.64-1.312-1.657-1.312-4.782t1.312-4.781q1.328-1.656 3.828-1.656.703 0 1.344.156.656.156 1.219.453v2.719q-.625-.578-1.219-.844-.594-.281-1.219-.281-1.344 0-2.031 1.078-.687 1.062-.687 3.156t.687 3.172q.688 1.062 2.031 1.062.625 0 1.219-.265.594-.281 1.219-.86z"/><text x="111.5" y="232.36" fill="#D9B8FF" font-family="Helvetica" font-size="17" textLength="151">aws_rds_snapshot</text><rect width="112" height="39.789" x="118" y="7" fill="#3D176E" rx="2.5" ry="2.5" style="stroke:#000d19;stroke-width:.5"/><circle cx="133" cy="26.895" r="11" fill="#ADD1B2" style="stroke:#181818;stroke-width:1"/><path d="M135.969 32.535q-.578.297-1.219.438-.64.156-1.344.156-2.5 0-3.828-1.64-1.312-1.657-1.312-4.782t1.312-4.781q1.328-1.656 3.828-1.656.703 0 1.344.156.656.156 1.219.453v2.719q-.625-.578-1.219-.844-.594-.281-1.219-.281-1.344 0-2.031 1.078-.687 1.062-.687 3.156t.687 3.172q.688 1.062 2.031 1.062.625 0 1.219-.265.594-.281 1.219-.86z"/><text x="152" y="32.78" fill="#D9B8FF" font-family="Helvetica" font-size="17" textLength="70">aws_vpc</text><path fill="none" d="M115.42 147.01c12.8 17.14 27.812 37.241 40.602 54.381" style="stroke:#1a83af;stroke-width:2"/><path fill="#1A83AF" d="m159.61 206.2-2.177-9.605-.813 5.598-5.598-.814z" style="stroke:#1a83af;stroke-width:2"/><path fill="none" d="M159.58 47.22c-12.8 17.14-27.812 37.241-40.602 54.381" style="stroke:#1a83af;stroke-width:2"/><path fill="#1A83AF" d="m115.39 106.41 8.588-4.82-5.598.813-.813-5.598z" style="stroke:#1a83af;stroke-width:2"/><path fill="none" d="M186.28 47.09c9.12 15.44 20.78 38.06 25.72 59.7 3.94 17.24 3.94 22.55 0 39.79-4.94 21.64-13.548 39.094-22.668 54.534" style="stroke:#1a83af;stroke-width:2"/><path fill="#1A83AF" d="m186.28 206.28 8.021-5.715-5.478 1.41-1.41-5.478z" style="stroke:#1a83af;stroke-width:2"/></svg>
